X:2114
T:Brendan McMahon's
R:Reel
S:
H:
N:
D:Maiden Voyage
Z:Adrian Scahill
M:4/4
L:1/8
K:D
FEE2 FEDE|FEE2 FABA|FEE2 FEDB,|D3E FABA:||
Bee2 fded|Bee2 dBAd|Bee2 fded|B3c dBAd|\
Bee2 fded|egfe d3e|fdec dBcA|B3c dcBA||


